img/social/instagram.svg

<svg width="32" height="33" viewBox="0 0 32 33" fill="none" xmlns="http://www.w3.org/2000/svg">
<path d="M16 8.41406C11.5 8.41406 7.91406 12.0703 7.91406 16.5C7.91406 21 11.5 24.5859 16 24.5859C20.4297 24.5859 24.0859 21 24.0859 16.5C24.0859 12.0703 20.4297 8.41406 16 8.41406ZM16 21.7734C13.1172 21.7734 10.7266 19.4531 10.7266 16.5C10.7266 13.6172 13.0469 11.2969 16 11.2969C18.8828 11.2969 21.2031 13.6172 21.2031 16.5C21.2031 19.4531 18.8828 21.7734 16 21.7734ZM26.2656 8.13281C26.2656 7.07812 25.4219 6.23438 24.3672 6.23438C23.3125 6.23438 22.4688 7.07812 22.4688 8.13281C22.4688 9.1875 23.3125 10.0312 24.3672 10.0312C25.4219 10.0312 26.2656 9.1875 26.2656 8.13281ZM31.6094 10.0312C31.4688 7.5 30.9062 5.25 29.0781 3.42188C27.25 1.59375 25 1.03125 22.4688 0.890625C19.8672 0.75 12.0625 0.75 9.46094 0.890625C6.92969 1.03125 4.75 1.59375 2.85156 3.42188C1.02344 5.25 0.460938 7.5 0.320312 10.0312C0.179688 12.6328 0.179688 20.4375 0.320312 23.0391C0.460938 25.5703 1.02344 27.75 2.85156 29.6484C4.75 31.4766 6.92969 32.0391 9.46094 32.1797C12.0625 32.3203 19.8672 32.3203 22.4688 32.1797C25 32.0391 27.25 31.4766 29.0781 29.6484C30.9062 27.75 31.4688 25.5703 31.6094 23.0391C31.75 20.4375 31.75 12.6328 31.6094 10.0312ZM28.2344 25.7812C27.7422 27.1875 26.6172 28.2422 25.2812 28.8047C23.1719 29.6484 18.25 29.4375 16 29.4375C13.6797 29.4375 8.75781 29.6484 6.71875 28.8047C5.3125 28.2422 4.25781 27.1875 3.69531 25.7812C2.85156 23.7422 3.0625 18.8203 3.0625 16.5C3.0625 14.25 2.85156 9.32812 3.69531 7.21875C4.25781 5.88281 5.3125 4.82812 6.71875 4.26562C8.75781 3.42188 13.6797 3.63281 16 3.63281C18.25 3.63281 23.1719 3.42188 25.2812 4.26562C26.6172 4.75781 27.6719 5.88281 28.2344 7.21875C29.0781 9.32812 28.8672 14.25 28.8672 16.5C28.8672 18.8203 29.0781 23.7422 28.2344 25.7812Z" fill="#1565D8"/>
</svg>

<svg width="32" height="33" fill="none" xmlns="http://www.w3.org/2000/svg"><path d="M16 8.414c-4.5 0-8.086 3.656-8.086 8.086 0 4.5 3.586 8.086 8.086 8.086 4.43 0 8.086-3.586 8.086-8.086 0-4.43-3.656-8.086-8.086-8.086zm0 13.36a5.266 5.266 0 0 1-5.273-5.274c0-2.883 2.32-5.203 5.273-5.203a5.191 5.191 0 0 1 5.203 5.203c0 2.953-2.32 5.273-5.203 5.273zM26.266 8.132a1.89 1.89 0 0 0-1.899-1.899 1.89 1.89 0 0 0-1.898 1.899 1.89 1.89 0 0 0 1.898 1.898 1.89 1.89 0 0 0 1.899-1.898zm5.343 1.898c-.14-2.531-.703-4.781-2.53-6.61C27.25 1.595 25 1.032 22.468.892 19.867.75 12.062.75 9.46.89c-2.531.14-4.711.703-6.61 2.53C1.024 5.25.462 7.5.322 10.032.18 12.633.18 20.437.32 23.04c.14 2.531.702 4.711 2.53 6.61 1.899 1.828 4.079 2.39 6.61 2.53 2.601.141 10.406.141 13.008 0 2.531-.14 4.781-.702 6.61-2.53 1.827-1.899 2.39-4.079 2.53-6.61.141-2.602.141-10.406 0-13.008zm-3.375 15.75c-.492 1.407-1.617 2.461-2.953 3.024-2.11.843-7.031.633-9.281.633-2.32 0-7.242.21-9.281-.633a5.33 5.33 0 0 1-3.024-3.024c-.843-2.039-.632-6.96-.632-9.281 0-2.25-.211-7.172.632-9.281A5.423 5.423 0 0 1 6.72 4.266c2.039-.844 6.96-.633 9.281-.633 2.25 0 7.172-.211 9.281.633 1.336.492 2.39 1.617 2.953 2.953.844 2.11.633 7.031.633 9.281 0 2.32.211 7.242-.633 9.281z" fill="#1565D8"/></svg>
